svgs/sharp-regular/value-absolute.svg

<svg xmlns="http://www.w3.org/2000/svg" viewBox="0 0 512 512"><!--! Font Awesome Pro 6.6.0 by @fontawesome - https://fontawesome.com License - https://fontawesome.com/license (Commercial License) Copyright 2024 Fonticons, Inc. --><path d="M48 32l0 24 0 400 0 24L0 480l0-24L0 56 0 32l48 0zM335 143l17-17L385.9 160l-17 17-79 79 79 79 17 17L352 385.9l-17-17-79-79-79 79-17 17L126.1 352l17-17 79-79-79-79-17-17L160 126.1l17 17 79 79 79-79zM512 56l0 400 0 24-48 0 0-24 0-400 0-24 48 0 0 24z"/></svg>

<svg xmlns="http://www.w3.org/2000/svg" viewBox="0 0 512 512"><!--! Font Awesome Pro 6.4.2 by @fontawesome - https://fontawesome.com License - https://fontawesome.com/license (Commercial License) Copyright 2023 Fonticons, Inc. --><path d="M48 32V56 456v24H0V456 56 32H48zM335 143l17-17L385.9 160l-17 17-79 79 79 79 17 17L352 385.9l-17-17-79-79-79 79-17 17L126.1 352l17-17 79-79-79-79-17-17L160 126.1l17 17 79 79 79-79zM512 56V456v24H464V456 56 32h48V56z"/></svg>
